assets/icons/twitter.svg

<?xml version="1.0" encoding="UTF-8"?>
<svg width="15px" height="13px" viewBox="0 0 15 13" version="1.1" xmlns="http://www.w3.org/2000/svg" xmlns:xlink="http://www.w3.org/1999/xlink">
    <!-- Generator: Sketch 64 (93537) - https://sketch.com -->
    <title>twitter</title>
    <desc>Created with Sketch.</desc>
    <g id="Page-1" stroke="none" stroke-width="1" fill="none" fill-rule="evenodd">
        <g id="Daxil-ol---Qeydiyyat" transform="translate(-1188.000000, -863.000000)" fill="#FFFFFF" fill-rule="nonzero">
            <g id="BOTTOM" transform="translate(0.000000, 761.000000)">
                <g id="twitter" transform="translate(1188.000000, 102.000000)">
                    <path d="M5.70751189,12.3841095 C3.20400237,12.3841095 1.22531892,11.9467163 0.278663643,11.1843109 L0.260238633,11.1694336 L0.243530273,11.1527252 C0.018653877,10.9277344 -0.0550460742,10.6325912 0.0415420605,10.3430557 L0.0503540039,10.3190231 C0.167541504,10.0259399 0.45467376,9.8286438 0.765838623,9.82681274 C1.40625,9.81571198 1.96655273,9.73937988 2.47501374,9.59117889 C1.66397095,9.21398162 1.1005783,8.56086732 0.765380859,7.61558531 C0.652656562,7.32078551 0.749931328,6.99394225 1.00971223,6.79904938 C1.07379914,6.75086977 1.14624023,6.71447754 1.22291566,6.69010163 C0.772247314,6.1698532 0.439338691,5.57785034 0.252914414,4.95174407 L0.247077949,4.93228913 L0.24307251,4.9123764 C0.179786689,4.5957184 0.321350098,4.27013396 0.580787666,4.12994385 C0.689620957,4.06745912 0.807838447,4.03507233 0.926513672,4.03232575 C0.798568711,3.75675202 0.705528252,3.47385407 0.650367744,3.1892395 C0.497245781,2.4005127 0.623588555,1.6098404 1.02573396,0.839195244 L1.11877441,0.653114326 C1.19327546,0.504226699 1.33563996,0.399627686 1.49974822,0.372962959 C1.66385651,0.346412666 1.83208465,0.400657646 1.94961548,0.518188477 L2.11910247,0.687904365 C3.45806121,2.09163665 4.65740203,2.75768279 6.73095703,3.21338654 C6.82353973,2.41744995 7.16766357,1.67758942 7.72281647,1.09531403 C8.38348389,0.402488701 9.26570892,0.0137329102 10.2069855,0.000457763672 L10.2131653,0.000457763672 C10.8999252,0.000457763672 11.7518234,0.392532363 12.2670364,0.669021621 C12.7090073,0.524368301 13.2415008,0.300407402 13.7940216,0.0636291504 C14.0525436,-0.0576782227 14.3712616,-0.00217437891 14.5745087,0.201072686 C14.7737503,0.400314316 14.8290253,0.681266777 14.7232819,0.954322822 C14.6831131,1.06613159 14.6375656,1.17588044 14.5868683,1.28322601 C14.6625137,1.31790161 14.7317505,1.36493684 14.7902298,1.42341615 C14.967041,1.60022736 15.040741,1.87694549 14.9779129,2.12848664 L14.9711609,2.15240479 C14.7594452,2.83470152 14.3527222,3.39042662 13.8148499,3.73924254 C13.7250137,8.52298737 10.1226425,12.3841095 5.70751189,12.3841095 L5.70751189,12.3841095 Z M1.12220766,10.6943893 C2.01427459,11.1990738 3.71429443,11.5044022 5.70751189,11.5044022 C7.62382506,11.5044022 9.43222046,10.6816864 10.7994461,9.18777466 C12.177887,7.68161774 12.9369736,5.68153383 12.9369736,3.5559082 L12.9369736,3.53199006 C12.9369736,3.33950042 13.0429459,3.16383363 13.2134628,3.07342529 C13.5594177,2.89020539 13.8395691,2.578125 14.021759,2.17906951 C13.833847,2.20870972 13.6428451,2.13329314 13.5257721,1.97605134 C13.3897018,1.7932892 13.3882141,1.54644012 13.5219955,1.36207582 C13.5942078,1.26251221 13.659668,1.15894318 13.7180329,1.05182648 C13.2409286,1.25221254 12.7878571,1.43188477 12.3945236,1.55124665 C12.2515869,1.5945053 12.0922852,1.57756805 11.9617081,1.50466919 C11.2614441,1.11454011 10.6092453,0.881309502 10.2160263,0.880165107 C8.76502992,0.902366631 7.58525848,2.14508057 7.58525848,3.65180971 C7.58525848,3.80756379 7.51613616,3.9535904 7.39585875,4.05258179 C7.27546693,4.15145874 7.11891176,4.19105531 6.96601869,4.16084291 C4.575119,3.68980406 3.15834047,2.98347475 1.68502808,1.50295257 C1.47388459,2.00889586 1.41620637,2.51850129 1.51382446,3.021698 C1.61281585,3.53141783 1.87614439,4.04216766 2.27542878,4.4986725 C2.42717742,4.67193604 2.44731902,4.91981508 2.32555389,5.1153946 C2.20424651,5.31028746 1.97364809,5.40138246 1.75197601,5.34198762 C1.57871247,5.29552459 1.41941071,5.23452759 1.2683487,5.15613557 C1.57608032,5.82458496 2.10536956,6.44279479 2.77072907,6.8987274 C2.96356201,7.03090667 3.04412842,7.27729799 2.96676636,7.49794008 C2.88928986,7.71892547 2.67288208,7.86117554 2.43896484,7.84378052 C2.18410491,7.82489777 1.95831299,7.77648926 1.75048828,7.69489289 C2.12356567,8.45466615 2.71968841,8.87271882 3.6380768,9.03247834 C3.85677337,9.07058716 4.02706146,9.2432785 4.06185149,9.46220396 C4.096756,9.68112946 3.98838044,9.89810944 3.79234313,10.0021362 C3.00956725,10.417099 2.15400697,10.639801 1.12220766,10.6943893 Z" id="Shape"></path>
                </g>
            </g>
        </g>
    </g>
</svg>

<svg width="15" height="13" xmlns="http://www.w3.org/2000/svg"><path d="M5.708 12.384c-2.504 0-4.483-.437-5.43-1.2L.26 11.17l-.016-.016a.77.77 0 01-.202-.81l.008-.024a.784.784 0 01.716-.492c.64-.011 1.2-.088 1.709-.236-.811-.377-1.374-1.03-1.71-1.975a.7.7 0 01.245-.817.715.715 0 01.213-.109 4.73 4.73 0 01-.97-1.738l-.006-.02-.004-.02C.18 4.596.321 4.27.581 4.13a.726.726 0 01.346-.098A3.658 3.658 0 01.65 3.19C.497 2.401.624 1.61 1.026.84l.093-.186a.52.52 0 01.83-.135l.17.17c1.34 1.404 2.538 2.07 4.612 2.525a3.674 3.674 0 01.992-2.118A3.48 3.48 0 0110.207 0h.006c.687 0 1.539.393 2.054.669.442-.145.975-.369 1.527-.605a.698.698 0 01.78.137c.2.2.255.48.15.753-.04.112-.086.222-.137.33a.699.699 0 01.203.14c.177.176.25.453.188.704l-.007.024c-.212.683-.618 1.238-1.156 1.587-.09 4.784-3.692 8.645-8.107 8.645zm-4.586-1.69c.892.505 2.592.81 4.586.81 1.916 0 3.724-.822 5.091-2.316 1.379-1.506 2.138-3.506 2.138-5.632v-.024c0-.192.106-.368.276-.459.346-.183.627-.495.809-.894a.517.517 0 01-.496-.203.516.516 0 01-.004-.614c.072-.1.138-.203.196-.31-.477.2-.93.38-1.323.5a.563.563 0 01-.433-.047c-.7-.39-1.353-.624-1.746-.625-1.451.022-2.63 1.265-2.63 2.772a.517.517 0 01-.62.509c-2.39-.471-3.808-1.178-5.281-2.658a2.597 2.597 0 00-.171 1.519c.099.51.362 1.02.761 1.477a.517.517 0 01.05.616.515.515 0 01-.573.227 2.376 2.376 0 01-.484-.186c.308.669.837 1.287 1.503 1.743a.52.52 0 01-.332.945 2.332 2.332 0 01-.689-.15c.374.76.97 1.179 1.888 1.338a.52.52 0 01.154.97c-.782.415-1.638.638-2.67.692z" fill="#FFF" fill-rule="nonzero"/></svg>
